X:1
T:Minore in A minor
T:Minore in A minor
T:K. 15k
T:W.A. Mozart
C:W. A. Mozart
%%score { 1 | 2 }
L:1/8
Q:1/4=100
M:3/4
K:C
V:1 treble nm="Piano" snm="Pno."
V:2 bass 
V:1
 ce^GB A2 | (3z fg (3agf e2 | ce^GB A2 | (3z de (3fed c2 | cc'c'_bba | afgefc | %6
 (3d_bg [Af]2 [Ge]2 | [Af]6 :: [Af]2 [A^f]4 | [_Bg]2 [=B^g]4 | [^ca]2 A2 z2 | [fa]2 A2 z2 | %12
 [^fa]2 A2 z2 | (3z =fg (3agf e2 | Aaa^ggf | feeddc | (3FdB A2 ^G2 | A6 :| %18
V:2
 A,2 B,2 C2 | D4 C2 | A,2 B,2 C2 | ^G,4 A,2 | A,2 =G,2 F,2 | A,2 _B,2 A,2 | _B,2 C2 C,2 | %7
 F,2 C,2 F,,2 :: D,2 D2 C2 | _B,2 E2 D2 | z2 [A,,A,]2 [G,,G,]2 | z2 [F,,F,]2 [D,,D,]2 | %12
 z2 [^F,,^F,]2 [^D,,^D,]2 | [=D,,=D,]4 [C,,C,]2 | C,C B,2 A,2 | ^G,2 E,2 A,2 | D,2 E,2 E,,2 | %17
 A,,2 E,2 A,2 :| %18

